X:39
T:Queen Among the Heather
Z:Jack Campin, http://www.campin.me.uk/
F:Jack Campin's Nine-Note Tunebook
% last edit 03-02-2013
S:MacColl & Seeger, Till Doomsday in the Afternoon
M:4/4
L:1/8
Q:1/4=90
K:DDor
cB|A2 A2 D2 (AG)|  E D3  HC2
cB|A2 A2 D2  D2 |(3c2c2A2 c2Hd2|z4 z2
cB|A2 A2 D2 (AG)|  E2 D2 HC2
c2|Hd3 c A G2 c |  C2 D2 E HD3 |z4 z2|]

